X:43
T:Prince Ferdinand. ThoH.043
Q:1/2=80
M:C|
L:1/8
B:Thompson's Compleat Collection of 120 Favourite Hornpipes.
Z:Village Music Project, Simon Wilson 2016
O:England.
K:G
cBA|GBeg bagf|edcB AFDB,|CDEF GABc|AFG2G2A2|BGTG2AFTF2|
EGge d^cBA|B^cdB Agfe|1fa^ce d:|2fa^ced4||
|:A3B Agfg|((3agf) ((3edc){c}B4|e2E2FGAB|cAEG{G}TF4|
GDB,G, A,B,CD|EcBA GFED|Egfe dgfe|dcBAG2:|

